svg/file-icons/Isabelle.svg

<svg version="1.1" xmlns="http://www.w3.org/2000/svg" width="512px" height="512px"><path d="M205.5734253,359.4801636l-22.8797913,22.1580811l-78.2668762-36.8349609l56.0791931-50.8170776l14.2675476,6.6032715v41.655426L205.5734253,359.4801636z M261.9057617,375.3204346v-91.5137939l-73.4248505-35.4938354l0.2073669,85.8530884L261.9057617,375.3204346z M86.0819931,285.7456055l39.5495071,21.2316895l32.3699493-29.3376465l16.772049,7.7451172v-44.9086151l-88.6915054-43.7990723V285.7456055z M180.7465973,228.292984l23.9192963-21.3420715l-44.7227783-22.6105042v-49.3035736l-14.2110138-6.1723785L87.12957,181.8170624L180.7465973,228.292984z M215.6021881,197.0298615l25.917511-23.5718994v-49.0315857L173.731308,89.33918v86.5236435L215.6021881,197.0298615z M338.2686768,381.9613953v102.0488281l60.1564331-57.7380676v-92.6771851L338.2686768,381.9613953z M318.0495911,71.3956757l-62.7416992,52.3763046v52.4624863l29.5369263,13.1257172l33.2047729-32.3888092V71.3956757z M449.4953003,279.8156128v93.5712585L512,321.0186157v-94.0344238L449.4953003,279.8156128z M99.964447,357.9451599v95.9249268l77.4428253,41.8224182V394.3923035L99.964447,357.9451599z M0,310.8929138v88.9931335l86.1762466,46.5405579v-94.9715881L0,310.8929138z M456.9602966,194.3718719v21.8779907l-0.4362488,0.4093323l-91.0505981,84.8405304l47.0522461,19.2819214v39.5710449l23.1813965,11.8276978v-98.7633667l66.964325-56.5962372L456.9602966,194.3718719z M374.015686,183.7964325l-35.1868591,29.5503693l5.2136841,2.315979v76.9176941l7.3788147,3.0754089l22.5943604-20.3806763V183.7964325z M173.731308,73.8166885l74.0146179,38.3080292l65.3323822-54.5360947l-82.567627-41.2811127L173.731308,69.9306793V73.8166885z M443.1721191,210.2875366v-84.5738983l-55.3682556,46.5028534v90.1699829L443.1721191,210.2875366z M331.8377991,136.6795654l49.7506104,22.7451477l61.416748-51.5791855l-83.8818054-41.9382019l-27.285553,21.8295135V136.6795654z M218.1174622,366.5304565l-26.9219971,26.0683289v96.5766296l44.5827332-45.1671143v-67.5514221L218.1174622,366.5304565z M90.910553,338.4423828l23.8788986-21.6409912l-42.4956589-22.8151855v-44.5531006l-12.7890968-6.9748993L1.9174215,296.5553589L90.910553,338.4423828z M330.254303,321.7242126v-86.4671021l-54.5603333,47.3699951v89.4832764L330.254303,321.7242126z M324.8090515,207.1151733l45.0917053-37.8717651l-38.0629578-17.3995209v10.9389954l-33.4256287,32.6069336L324.8090515,207.1151733z M246.6202545,187.4616089l-52.8718262,48.0809631l73.9634552,35.7469788l56.730896-49.2470245L246.6202545,187.4616089z M324.4804993,383.0439758l-26.7738953-12.4794006l-27.3986511,25.2981262l-20.7415466-11.6553345v60.4364624l74.914093,39.9319153V383.0439758z M344.042511,307.5158997v20.2406311l-35.39151,32.6931152l21.759491,10.1418762l56.5100708-45.2102051L344.042511,307.5158997z"/></svg>

<svg xmlns="http://www.w3.org/2000/svg" width="512" height="512"><path d="m205.573 359.48-22.88 22.158-78.266-36.835 56.079-50.817 14.267 6.603v41.656l30.8 17.235zm56.333 15.84v-91.513l-73.425-35.494.207 85.853 73.218 41.154zM86.082 285.746l39.55 21.231 32.37-29.337 16.771 7.745v-44.909l-88.691-43.799v89.069zm94.665-57.453 23.919-21.342-44.723-22.61v-49.304l-14.21-6.173-58.603 52.953 93.617 46.476zm34.855-31.263 25.918-23.572v-49.032L173.73 89.34v86.524l41.871 21.167zM338.27 381.96v102.05l60.156-57.739v-92.677L338.27 381.96zM318.05 71.395l-62.741 52.376v52.462l29.537 13.126 33.205-32.389V71.396zm131.446 208.42v93.57L512 321.02v-94.035l-62.505 52.832zm-349.53 78.13v95.924l77.442 41.823v-101.3l-77.443-36.448zM0 310.892v88.993l86.176 46.54v-94.971L0 310.893zm456.96-116.521v21.878l-.436.41-91.05 84.84 47.052 19.282v39.57l23.181 11.828v-98.763l66.964-56.596-45.71-22.45zm-82.944-10.576-35.187 29.55 5.214 2.317v76.917l7.378 3.076 22.595-20.38v-91.48zM173.73 73.816l74.015 38.309 65.332-54.536-82.567-41.281-56.78 53.623v3.886zm269.441 136.472v-84.574l-55.368 46.502v90.17l55.368-52.098zM331.838 136.68l49.75 22.745 61.417-51.58-83.882-41.938-27.285 21.83v48.943zm-113.72 229.85-26.924 26.07v96.576l44.583-45.167v-67.551l-17.66-9.927zM90.91 338.442l23.878-21.64-42.495-22.816v-44.553l-12.79-6.975-57.587 54.097 88.994 41.887zm239.343-16.718v-86.467l-54.56 47.37v89.483l54.56-50.386zm-5.445-114.609 45.092-37.872-38.063-17.4v10.94l-33.426 32.607 26.397 11.725zm-78.189-19.653-52.872 48.08 73.964 35.748 56.73-49.247-77.822-34.581zm77.86 195.582-26.773-12.48-27.399 25.299-20.742-11.656v60.437l74.914 39.932V383.044zm19.563-75.528v20.24L308.65 360.45l21.76 10.142 56.51-45.21-42.878-17.866z"/></svg>
